src/lib/packages/icons/src/assets/filled/martini-glass.svg

<svg width="24" height="24" viewBox="0 0 24 24" fill="none" xmlns="http://www.w3.org/2000/svg">
<path d="M16.0001 1.25C13.6401 1.25 11.6901 2.99 11.3301 5.25H4.00011C3.72011 5.25 3.46012 5.41 3.33012 5.66C3.20012 5.91 3.23013 6.22 3.40013 6.45L9.25011 14.25V19.18C8.87011 19.62 8.12008 20.29 6.66008 20.98C6.32008 21.14 6.14008 21.51 6.22008 21.88C6.30008 22.25 6.62011 22.5 7.00011 22.5H12.9901C13.3701 22.5 13.6901 22.24 13.7701 21.88C13.8501 21.51 13.6701 21.14 13.3301 20.98C11.8801 20.29 11.1301 19.62 10.7401 19.18V14.25L13.7801 10.2C14.4601 10.56 15.2101 10.75 15.9901 10.75C18.6101 10.75 20.7401 8.62 20.7401 6C20.7401 3.38 18.6101 1.25 15.9901 1.25H16.0001ZM16.0001 9.25C15.5501 9.25 15.1101 9.15 14.7101 8.97L16.6001 6.45C16.7701 6.22 16.8001 5.92 16.6701 5.66C16.5401 5.4 16.2801 5.25 16.0001 5.25H12.8501C13.1901 3.82 14.4701 2.75 16.0001 2.75C17.7901 2.75 19.2501 4.21 19.2501 6C19.2501 7.79 17.7901 9.25 16.0001 9.25Z" fill="currentColor"/>
</svg>

<svg xmlns="http://www.w3.org/2000/svg" width="24" height="24" fill="none"><path fill="currentColor" d="M16 1.25c-2.36 0-4.31 1.74-4.67 4H4a.76.76 0 0 0-.67.41c-.13.25-.1.56.07.79l5.85 7.8v4.93c-.38.44-1.13 1.11-2.59 1.8a.8.8 0 0 0-.44.9c.08.37.4.62.78.62h5.99c.38 0 .7-.26.78-.62a.8.8 0 0 0-.44-.9c-1.45-.69-2.2-1.36-2.59-1.8v-4.93l3.04-4.05c.68.36 1.43.55 2.21.55 2.62 0 4.75-2.13 4.75-4.75s-2.13-4.75-4.75-4.75H16Zm0 8c-.45 0-.89-.1-1.29-.28l1.89-2.52c.17-.23.2-.53.07-.79a.742.742 0 0 0-.67-.41h-3.15c.34-1.43 1.62-2.5 3.15-2.5 1.79 0 3.25 1.46 3.25 3.25S17.79 9.25 16 9.25Z"/></svg>
